icons/outline/password.svg

<!--
tags: [lock, secure, privacy, locked, login]
unicode: "f4ca"
version: "1.98"
category: System
-->
<svg
  xmlns="http://www.w3.org/2000/svg"
  width="24"
  height="24"
  viewBox="0 0 24 24"
  fill="none"
  stroke="currentColor"
  stroke-width="2"
  stroke-linecap="round"
  stroke-linejoin="round"
>
  <path d="M12 10v4m-2 -1l4 -2m-4 0l4 2m-9 -3v4m-2 -1l4 -2m-4 0l4 2m12 -3v4m-2 -1l4 -2m-4 0l4 2" />
</svg>

<!--
tags: [lock, secure, privacy, locked, login]
unicode: "f4ca"
version: "1.98"
category: System
-->
<svg
  xmlns="http://www.w3.org/2000/svg"
  width="24"
  height="24"
  viewBox="0 0 24 24"
  fill="none"
  stroke="currentColor"
  stroke-width="2"
  stroke-linecap="round"
  stroke-linejoin="round"
>
    <path d="M12 10v4M10 13l4 -2M10 11l4 2M5 10v4M3 13l4 -2M3 11l4 2M19 10v4M17 13l4 -2M17 11l4 2" />
</svg>
